SVG_Azure_All/Web Socket.svg

<?xml version="1.0" encoding="UTF-8" standalone="no"?>
<!-- Generated by Microsoft Visio, SVG Export Web Socket.svg Page-1 -->

<svg
   xmlns:dc="http://purl.org/dc/elements/1.1/"
   xmlns:cc="http://creativecommons.org/ns#"
   xmlns:rdf="http://www.w3.org/1999/02/22-rdf-syntax-ns#"
   xmlns:svg="http://www.w3.org/2000/svg"
   xmlns="http://www.w3.org/2000/svg"
   xmlns:sodipodi="http://sodipodi.sourceforge.net/DTD/sodipodi-0.dtd"
   xmlns:inkscape="http://www.inkscape.org/namespaces/inkscape"
   width="0.76530445in"
   height="0.74811393in"
   viewBox="0 0 55.101918 53.863996"
   xml:space="preserve"
   class="st2"
   version="1.1"
   id="svg24"
   sodipodi:docname="Web Socket.svg"
   style="font-size:12px;overflow:visible;color-interpolation-filters:sRGB;fill:none;fill-rule:evenodd;stroke-linecap:square;stroke-miterlimit:3"
   inkscape:version="0.92.5 (2060ec1f9f, 2020-04-08)"><metadata
   id="metadata28"><rdf:RDF><cc:Work
       rdf:about=""><dc:format>image/svg+xml</dc:format><dc:type
         rdf:resource="http://purl.org/dc/dcmitype/StillImage" /></cc:Work></rdf:RDF></metadata><sodipodi:namedview
   pagecolor="#ffffff"
   bordercolor="#666666"
   borderopacity="1"
   objecttolerance="10"
   gridtolerance="10"
   guidetolerance="10"
   inkscape:pageopacity="0"
   inkscape:pageshadow="2"
   inkscape:window-width="640"
   inkscape:window-height="480"
   id="namedview26"
   showgrid="false"
   inkscape:zoom="1.8979166"
   inkscape:cx="36.740086"
   inkscape:cy="16.8248"
   inkscape:window-x="0"
   inkscape:window-y="0"
   inkscape:window-maximized="0"
   inkscape:current-layer="svg24" />
	<style
   type="text/css"
   id="style2">
	<![CDATA[
		.st1 {fill:url(#grad0-5)}
		.st2 {fill:none;fill-rule:evenodd;font-size:12px;overflow:visible;stroke-linecap:square;stroke-miterlimit:3}
	]]>
	</style>

	<defs
   id="Patterns_And_Gradients">
		<linearGradient
   id="grad0-5"
   x1="0.78245751"
   y1="39.850105"
   x2="55.262"
   y2="39.850105"
   gradientTransform="scale(1.011424,0.98870505)"
   gradientUnits="userSpaceOnUse">
			<stop
   offset="0"
   stop-color="#e498e1"
   stop-opacity="1"
   id="stop4" />
			<stop
   offset="0.46"
   stop-color="#9f2a9c"
   stop-opacity="1"
   id="stop6" />
			<stop
   offset="1"
   stop-color="#581756"
   stop-opacity="1"
   id="stop8" />
		</linearGradient>
	</defs>
	<g
   id="g22"
   transform="translate(-6.4606863,-5.3844767)">
		<title
   id="title12">Page-1</title>
		<g
   id="group59-1"
   transform="translate(5.66929,-34.0157)">
			<title
   id="title14">Web Socket</title>
			<g
   id="shape60-2">
				<title
   id="title16">path9</title>
				<path
   d="m 55.45,58.24 c -1.25,-3.13 -4.69,-4.58 -7.69,-3.28 -2.49,1.07 -3.96,3.81 -3.59,6.48 l -9.45,4.12 c -1.03,-1.83 -2.86,-3.2 -4.91,-3.59 v -10.6 c 2.49,-0.68 4.4,-3.05 4.4,-5.87 0,-3.35 -2.64,-6.1 -5.86,-6.1 -3.23,0 -5.86,2.75 -5.86,6.1 0,2.82 1.9,5.19 4.39,5.87 V 61.9 C 24.76,62.28 23,63.65 21.97,65.48 L 12.52,61.36 C 12.89,58.69 11.5,55.95 8.94,54.88 5.93,53.59 2.49,55.04 1.25,58.16 0,61.29 1.39,64.87 4.39,66.17 a 5.66676,5.69251 -180 0 0 6.89,-1.98 l 9.67,4.11 c -0.07,0.31 -0.07,0.69 -0.07,1 0,1.67 0.51,3.27 1.46,4.57 l -7.62,8.01 c -2.27,-1.37 -5.2,-1.07 -7.1,0.91 -2.27,2.37 -2.27,6.26 0,8.62 a 5.73378,5.75984 -180 0 0 8.27,0 c 1.91,-1.98 2.2,-5.03 0.88,-7.4 l 7.77,-8.08 A 6.89096,6.92228 -180 0 0 28.2,77 h 0.29 c 1.32,0 2.57,-0.38 3.67,-1.07 l 7.76,8.08 c -1.32,2.37 -1.03,5.42 0.88,7.48 a 5.73527,5.76133 -180 0 0 8.28,0 c 2.27,-2.37 2.27,-6.26 0,-8.62 -1.91,-1.98 -4.84,-2.29 -7.11,-0.92 l -7.62,-8 c 0.96,-1.3 1.47,-2.82 1.47,-4.58 0,-0.3 0,-0.68 -0.08,-0.99 l 9.67,-4.12 c 1.54,2.14 4.4,3.05 6.89,1.99 2.93,-1.38 4.39,-4.89 3.15,-8.01 z"
   class="st1"
   id="path18"
   inkscape:connector-curvature="0"
   style="fill:url(#grad0-5)" />
			</g>
		</g>
	</g>
</svg>

<?xml version="1.0" encoding="UTF-8" standalone="no"?>
<!DOCTYPE svg PUBLIC "-//W3C//DTD SVG 1.1//EN" "http://www.w3.org/Graphics/SVG/1.1/DTD/svg11.dtd">
<!-- Generated by Microsoft Visio, SVG Export Web Socket.svg Page-1 -->
<svg xmlns="http://www.w3.org/2000/svg" xmlns:xlink="http://www.w3.org/1999/xlink" xmlns:ev="http://www.w3.org/2001/xml-events"
		width="0.944882in" height="1.29528in" viewBox="0 0 68.0315 93.2598" xml:space="preserve" color-interpolation-filters="sRGB"
		class="st2">
	<style type="text/css">
	<![CDATA[
		.st1 {fill:url(#grad0-5)}
		.st2 {fill:none;fill-rule:evenodd;font-size:12px;overflow:visible;stroke-linecap:square;stroke-miterlimit:3}
	]]>
	</style>

	<defs id="Patterns_And_Gradients">
		<linearGradient id="grad0-5" x1="0" y1="0" x2="1" y2="0" gradientTransform="rotate(47.381845717983 0.5 0.5)">
			<stop offset="0" stop-color="#e498e1" stop-opacity="1"/>
			<stop offset="0.46" stop-color="#9f2a9c" stop-opacity="1"/>
			<stop offset="1" stop-color="#581756" stop-opacity="1"/>
		</linearGradient>
	</defs>
	<g>
		<title>Page-1</title>
		<g id="group59-1" transform="translate(5.66929,-34.0157)">
			<title>Web Socket</title>
			<g id="shape60-2">
				<title>path9</title>
				<path d="M55.45 58.24 C54.2 55.11 50.76 53.66 47.76 54.96 C45.27 56.03 43.8 58.77 44.17 61.44 L34.72 65.56 C33.69
							 63.73 31.86 62.36 29.81 61.97 L29.81 51.37 C32.3 50.69 34.21 48.32 34.21 45.5 C34.21 42.15 31.57 39.4
							 28.35 39.4 C25.12 39.4 22.49 42.15 22.49 45.5 C22.49 48.32 24.39 50.69 26.88 51.37 L26.88 61.9 C24.76
							 62.28 23 63.65 21.97 65.48 L12.52 61.36 C12.89 58.69 11.5 55.95 8.94 54.88 C5.93 53.59 2.49 55.04 1.25
							 58.16 C0 61.29 1.39 64.87 4.39 66.17 A5.66676 5.69251 -180 0 0 11.28 64.19 L20.95 68.3 C20.88 68.61
							 20.88 68.99 20.88 69.3 C20.88 70.97 21.39 72.57 22.34 73.87 L14.72 81.88 C12.45 80.51 9.52 80.81 7.62
							 82.79 C5.35 85.16 5.35 89.05 7.62 91.41 A5.73378 5.75984 -180 0 0 15.89 91.41 C17.8 89.43 18.09 86.38
							 16.77 84.01 L24.54 75.93 A6.89096 6.92228 -180 0 0 28.2 77 L28.49 77 C29.81 77 31.06 76.62 32.16 75.93
							 L39.92 84.01 C38.6 86.38 38.89 89.43 40.8 91.49 A5.73527 5.76133 -180 0 0 49.08 91.49 C51.35 89.12 51.35
							 85.23 49.08 82.87 C47.17 80.89 44.24 80.58 41.97 81.95 L34.35 73.95 C35.31 72.65 35.82 71.13 35.82 69.37
							 C35.82 69.07 35.82 68.69 35.74 68.38 L45.41 64.26 C46.95 66.4 49.81 67.31 52.3 66.25 C55.23 64.87 56.69
							 61.36 55.45 58.24 L55.45 58.24 Z" class="st1"/>
			</g>
		</g>
	</g>
</svg>
